!!!OTL: "Die Werber" ES KOMMEN DREI HERREN AUS HIMMELREICH
!!!ARE: Europa, Mitteleuropa, Deutschland, Niederrhein
!!!SCT: Z1313
!!!YEM: Copyright 1995, estate of Helmut Schaffrath.
**kern
*ICvox
*Ivox
*M3/8
*k[b-e-]
*g:
{8d
=1
8g
8g
8a
=2
8b-
8b-
8cc
=3
4dd
8cc
=4
4dd}
{8dd
=5
4gg
8dd
=6
8cc
8b-
8a
=7
4.dd
=8
8g
8r}
{8d
=9
8g
8g
8f#
=10
8g
8g
8a
=11
4b-
8cc
=12
4dd}
{16cc
16b-
=13
8a
8g
8f#
=14
8g
8a
8b-
=15
4.dd
=16
4g}
==
!!!AGN: Zech -, Schalks - Lied, Brauchtums - Lied
!!!ONB: ESAC (Essen Associative Code) Database: ZUCCAL
!!!AMT: simple triple
!!!AIN: vox
!!!EED: Helmut Schaffrath
!!!EEV: 1.0
*-
